src/assets/img/icons/mask/icon-partner-tron.svg

<svg width="158" height="49" viewBox="0 0 158 49" fill="none" xmlns="http://www.w3.org/2000/svg">
<path d="M9.12693 24.4189C3.88541 11.2938 -0.207277 0.308635 0.00812773 0.0233058C0.295334 -0.190691 8.83972 1.09329 18.9637 2.8766L37.4886 6.22921L42.2993 11.0085L47.0382 15.8591L33.6831 32.0515C26.2875 40.968 19.8972 48.2439 19.4664 48.2439C19.0355 48.3153 14.4402 37.5441 9.12693 24.4189ZM20.328 29.1982C20.9742 23.9909 21.405 19.6397 21.2614 19.497C21.1178 19.4257 18.2457 17.0717 14.8711 14.3611C5.32144 6.58587 5.96766 6.94254 7.11649 9.79583C7.6909 11.1511 10.563 18.2844 13.5068 25.6316C16.4507 32.9075 18.8919 38.8281 18.9637 38.7567C19.0355 38.6854 19.6818 34.4055 20.328 29.1982ZM31.6008 28.6989C36.1961 23.2063 39.7862 18.641 39.7144 18.4984C39.499 18.2844 25.4977 20.6383 25.0669 20.9237C24.7079 21.1377 22.841 35.2614 22.7692 37.5441C22.7692 38.4714 22.9128 39.1134 23.0564 38.9707C23.2 38.8281 27.0773 34.1915 31.6008 28.6989ZM35.9089 15.5024L40.8632 14.5751L38.7092 12.4351C36.2679 10.0098 36.0525 10.0812 30.6674 14.7891C28.8006 16.4297 28.5134 16.9291 29.5904 16.6437C30.3802 16.5011 33.2523 15.9304 35.9089 15.5024ZM27.8671 12.5065C30.3084 10.4378 32.0316 8.72584 31.6726 8.58318C29.3032 8.01252 10.2758 4.80257 9.84494 4.94523C9.27053 5.15923 21.9794 16.0731 22.9128 16.1444C23.1282 16.2157 25.3541 14.5751 27.8671 12.5065Z" fill="#4D4D5D"/>
<path d="M9.12693 24.4189C3.88541 11.2938 -0.207277 0.308635 0.00812773 0.0233058C0.295334 -0.190691 8.83972 1.09329 18.9637 2.8766L37.4886 6.22921L42.2993 11.0085L47.0382 15.8591L33.6831 32.0515C26.2875 40.968 19.8972 48.2439 19.4664 48.2439C19.0355 48.3153 14.4402 37.5441 9.12693 24.4189ZM20.328 29.1982C20.9742 23.9909 21.405 19.6397 21.2614 19.497C21.1178 19.4257 18.2457 17.0717 14.8711 14.3611C5.32144 6.58587 5.96766 6.94254 7.11649 9.79583C7.6909 11.1511 10.563 18.2844 13.5068 25.6316C16.4507 32.9075 18.8919 38.8281 18.9637 38.7567C19.0355 38.6854 19.6818 34.4055 20.328 29.1982ZM31.6008 28.6989C36.1961 23.2063 39.7862 18.641 39.7144 18.4984C39.499 18.2844 25.4977 20.6383 25.0669 20.9237C24.7079 21.1377 22.841 35.2614 22.7692 37.5441C22.7692 38.4714 22.9128 39.1134 23.0564 38.9707C23.2 38.8281 27.0773 34.1915 31.6008 28.6989ZM35.9089 15.5024L40.8632 14.5751L38.7092 12.4351C36.2679 10.0098 36.0525 10.0812 30.6674 14.7891C28.8006 16.4297 28.5134 16.9291 29.5904 16.6437C30.3802 16.5011 33.2523 15.9304 35.9089 15.5024ZM27.8671 12.5065C30.3084 10.4378 32.0316 8.72584 31.6726 8.58318C29.3032 8.01252 10.2758 4.80257 9.84494 4.94523C9.27053 5.15923 21.9794 16.0731 22.9128 16.1444C23.1282 16.2157 25.3541 14.5751 27.8671 12.5065Z" fill="url(#paint0_linear)" fill-opacity="0.4"/>
<path d="M149.092 28.4641L140.678 18.3328L140.466 27.3786C140.324 35.8454 140.183 36.4244 138.91 36.4244C137.567 36.4244 137.496 35.8454 137.496 23.0366C137.496 15.6552 137.638 9.6488 137.779 9.6488C137.991 9.6488 141.88 14.0632 146.476 19.4906L154.818 29.3325L155.031 20.5761C155.172 12.3987 155.313 11.8198 156.586 11.8198C157.929 11.8198 158 12.3987 158 25.2076C158 32.589 157.929 38.5954 157.788 38.5954C157.647 38.5954 153.758 34.0363 149.092 28.4641Z" fill="#4D4D5D"/>
<path d="M149.092 28.4641L140.678 18.3328L140.466 27.3786C140.324 35.8454 140.183 36.4244 138.91 36.4244C137.567 36.4244 137.496 35.8454 137.496 23.0366C137.496 15.6552 137.638 9.6488 137.779 9.6488C137.991 9.6488 141.88 14.0632 146.476 19.4906L154.818 29.3325L155.031 20.5761C155.172 12.3987 155.313 11.8198 156.586 11.8198C157.929 11.8198 158 12.3987 158 25.2076C158 32.589 157.929 38.5954 157.788 38.5954C157.647 38.5954 153.758 34.0363 149.092 28.4641Z" fill="url(#paint1_linear)" fill-opacity="0.4"/>
<path d="M61.5115 27.7404C61.5115 19.7901 61.6019 19.2976 63.3206 19.2976C65.0393 19.2976 65.1298 19.7901 65.1298 27.7404C65.1298 35.6906 65.0393 36.1831 63.3206 36.1831C61.6019 36.1831 61.5115 35.6906 61.5115 27.7404Z" fill="#4D4D5D"/>
<path d="M61.5115 27.7404C61.5115 19.7901 61.6019 19.2976 63.3206 19.2976C65.0393 19.2976 65.1298 19.7901 65.1298 27.7404C65.1298 35.6906 65.0393 36.1831 63.3206 36.1831C61.6019 36.1831 61.5115 35.6906 61.5115 27.7404Z" fill="url(#paint2_linear)" fill-opacity="0.4"/>
<path d="M66.3358 27.7404C66.3358 19.7901 66.3961 19.2976 67.5419 19.2976C68.6877 19.2976 68.748 19.7901 68.748 27.7404C68.748 35.6906 68.6877 36.1831 67.5419 36.1831C66.3961 36.1831 66.3358 35.6906 66.3358 27.7404Z" fill="#4D4D5D"/>
<path d="M66.3358 27.7404C66.3358 19.7901 66.3961 19.2976 67.5419 19.2976C68.6877 19.2976 68.748 19.7901 68.748 27.7404C68.748 35.6906 68.6877 36.1831 67.5419 36.1831C66.3961 36.1831 66.3358 35.6906 66.3358 27.7404Z" fill="url(#paint3_linear)" fill-opacity="0.4"/>
<path d="M80.8091 24.1222V12.0612H89.2036C93.7627 12.0612 98.1771 12.4159 98.9731 12.7706C99.6968 13.1963 100.855 14.4734 101.434 15.6085C103.17 18.8721 102.809 21.6391 100.348 24.406L98.1047 26.8892L100.348 31.146C101.506 33.4873 102.519 35.6157 102.519 35.8286C102.519 36.0414 101.795 36.1833 100.927 36.1833C99.6244 36.1833 98.6836 35.1191 96.7297 31.5717C94.3416 27.173 94.0522 26.9601 91.5194 26.9601H88.7694V31.5717C88.7694 35.6867 88.6247 36.1833 87.3221 36.1833C86.0195 36.1833 85.8748 35.6867 85.8748 30.2237V24.3351L91.3746 23.9803C97.0192 23.6256 98.3218 22.9161 99.2626 20.0782C99.552 18.8721 99.1902 18.0207 97.8876 16.6727C96.2232 15.041 95.4995 14.8991 89.8549 14.8991H83.7038V25.5412C83.7038 35.6867 83.6314 36.1833 82.2565 36.1833C80.8815 36.1833 80.8091 35.6867 80.8091 24.1222Z" fill="#4D4D5D"/>
<path d="M80.8091 24.1222V12.0612H89.2036C93.7627 12.0612 98.1771 12.4159 98.9731 12.7706C99.6968 13.1963 100.855 14.4734 101.434 15.6085C103.17 18.8721 102.809 21.6391 100.348 24.406L98.1047 26.8892L100.348 31.146C101.506 33.4873 102.519 35.6157 102.519 35.8286C102.519 36.0414 101.795 36.1833 100.927 36.1833C99.6244 36.1833 98.6836 35.1191 96.7297 31.5717C94.3416 27.173 94.0522 26.9601 91.5194 26.9601H88.7694V31.5717C88.7694 35.6867 88.6247 36.1833 87.3221 36.1833C86.0195 36.1833 85.8748 35.6867 85.8748 30.2237V24.3351L91.3746 23.9803C97.0192 23.6256 98.3218 22.9161 99.2626 20.0782C99.552 18.8721 99.1902 18.0207 97.8876 16.6727C96.2232 15.041 95.4995 14.8991 89.8549 14.8991H83.7038V25.5412C83.7038 35.6867 83.6314 36.1833 82.2565 36.1833C80.8815 36.1833 80.8091 35.6867 80.8091 24.1222Z" fill="url(#paint4_linear)" fill-opacity="0.4"/>
<path d="M115.333 35.5048C107.906 32.8358 104.978 23.6748 109.477 17.1106C111.619 13.8645 115.261 12.0612 119.689 12.0612C128.544 12.0612 134.114 21.5107 130.186 29.8783C127.901 34.8556 120.903 37.5245 115.333 35.5048ZM125.33 30.8161C129.258 27.0651 129.401 21.3665 125.616 17.7598C119.903 12.3497 110.62 16.1728 110.691 23.819C110.763 27.4979 111.905 29.734 114.69 31.6095C117.475 33.5572 122.902 33.1243 125.33 30.8161Z" fill="#4D4D5D"/>
<path d="M115.333 35.5048C107.906 32.8358 104.978 23.6748 109.477 17.1106C111.619 13.8645 115.261 12.0612 119.689 12.0612C128.544 12.0612 134.114 21.5107 130.186 29.8783C127.901 34.8556 120.903 37.5245 115.333 35.5048ZM125.33 30.8161C129.258 27.0651 129.401 21.3665 125.616 17.7598C119.903 12.3497 110.62 16.1728 110.691 23.819C110.763 27.4979 111.905 29.734 114.69 31.6095C117.475 33.5572 122.902 33.1243 125.33 30.8161Z" fill="url(#paint5_linear)" fill-opacity="0.4"/>
<path d="M118.198 23.6345C118.198 22.0801 118.568 21.71 120.123 21.71C121.677 21.71 121.973 22.006 121.751 23.4124C121.603 24.4487 120.937 25.1149 119.901 25.2629C118.494 25.485 118.198 25.1889 118.198 23.6345Z" fill="#4D4D5D"/>
<path d="M118.198 23.6345C118.198 22.0801 118.568 21.71 120.123 21.71C121.677 21.71 121.973 22.006 121.751 23.4124C121.603 24.4487 120.937 25.1149 119.901 25.2629C118.494 25.485 118.198 25.1889 118.198 23.6345Z" fill="url(#paint6_linear)" fill-opacity="0.4"/>
<path d="M141.115 31.3587C141.115 27.0167 141.295 26.5343 142.924 26.5343C144.552 26.5343 144.733 27.0167 144.733 31.3587C144.733 35.7007 144.552 36.1832 142.924 36.1832C141.295 36.1832 141.115 35.7007 141.115 31.3587Z" fill="#4D4D5D"/>
<path d="M141.115 31.3587C141.115 27.0167 141.295 26.5343 142.924 26.5343C144.552 26.5343 144.733 27.0167 144.733 31.3587C144.733 35.7007 144.552 36.1832 142.924 36.1832C141.295 36.1832 141.115 35.7007 141.115 31.3587Z" fill="url(#paint7_linear)" fill-opacity="0.4"/>
<path d="M54.2747 13.2673C54.2747 12.1215 54.7813 12.0612 65.1297 12.0612C75.478 12.0612 75.9846 12.1215 75.9846 13.2673C75.9846 14.4131 75.478 14.4734 65.1297 14.4734C54.7813 14.4734 54.2747 14.4131 54.2747 13.2673Z" fill="#4D4D5D"/>
<path d="M54.2747 13.2673C54.2747 12.1215 54.7813 12.0612 65.1297 12.0612C75.478 12.0612 75.9846 12.1215 75.9846 13.2673C75.9846 14.4131 75.478 14.4734 65.1297 14.4734C54.7813 14.4734 54.2747 14.4131 54.2747 13.2673Z" fill="url(#paint8_linear)" fill-opacity="0.4"/>
<defs>
<linearGradient id="paint0_linear" x1="23.5191" y1="0" x2="23.5191" y2="48.2443" gradientUnits="userSpaceOnUse">
<stop stop-color="white"/>
<stop offset="1" stop-color="white" stop-opacity="0"/>
</linearGradient>
<linearGradient id="paint1_linear" x1="147.748" y1="9.6488" x2="147.748" y2="38.5954" gradientUnits="userSpaceOnUse">
<stop stop-color="white"/>
<stop offset="1" stop-color="white" stop-opacity="0"/>
</linearGradient>
<linearGradient id="paint2_linear" x1="63.3206" y1="19.2976" x2="63.3206" y2="36.1831" gradientUnits="userSpaceOnUse">
<stop stop-color="white"/>
<stop offset="1" stop-color="white" stop-opacity="0"/>
</linearGradient>
<linearGradient id="paint3_linear" x1="67.5419" y1="19.2976" x2="67.5419" y2="36.1831" gradientUnits="userSpaceOnUse">
<stop stop-color="white"/>
<stop offset="1" stop-color="white" stop-opacity="0"/>
</linearGradient>
<linearGradient id="paint4_linear" x1="91.6641" y1="12.0612" x2="91.6641" y2="36.1833" gradientUnits="userSpaceOnUse">
<stop stop-color="white"/>
<stop offset="1" stop-color="white" stop-opacity="0"/>
</linearGradient>
<linearGradient id="paint5_linear" x1="119.405" y1="12.0612" x2="119.405" y2="36.1833" gradientUnits="userSpaceOnUse">
<stop stop-color="white"/>
<stop offset="1" stop-color="white" stop-opacity="0"/>
</linearGradient>
<linearGradient id="paint6_linear" x1="120.008" y1="21.71" x2="120.008" y2="25.3283" gradientUnits="userSpaceOnUse">
<stop stop-color="white"/>
<stop offset="1" stop-color="white" stop-opacity="0"/>
</linearGradient>
<linearGradient id="paint7_linear" x1="142.924" y1="26.5343" x2="142.924" y2="36.1832" gradientUnits="userSpaceOnUse">
<stop stop-color="white"/>
<stop offset="1" stop-color="white" stop-opacity="0"/>
</linearGradient>
<linearGradient id="paint8_linear" x1="65.1297" y1="12.0612" x2="65.1297" y2="14.4734" gradientUnits="userSpaceOnUse">
<stop stop-color="white"/>
<stop offset="1" stop-color="white" stop-opacity="0"/>
</linearGradient>
</defs>
</svg>

<svg xmlns="http://www.w3.org/2000/svg" width="158" height="49" fill="none"><path fill="#4D4D5D" d="M9.13 24.42C3.89 11.29-.21.3 0 .02.3-.19 8.84 1.1 18.96 2.88L37.5 6.23l4.8 4.78 4.75 4.85-13.36 16.2c-7.4 8.9-13.78 16.18-14.21 16.18-.43.08-5.03-10.7-10.34-23.82zm11.2 4.78c.64-5.2 1.08-9.56.93-9.7-.14-.07-3.01-2.43-6.39-5.14C5.32 6.6 5.97 6.94 7.12 9.8c.57 1.35 3.44 8.48 6.39 15.83 2.94 7.28 5.38 13.2 5.45 13.13.08-.07.72-4.35 1.37-9.56zm11.27-.5c4.6-5.5 8.19-10.06 8.11-10.2-.21-.22-14.21 2.14-14.64 2.42-.36.22-2.23 14.34-2.3 16.62 0 .93.14 1.57.29 1.43.14-.14 4.02-4.78 8.54-10.27zm4.3-13.2l4.96-.92-2.15-2.14c-2.44-2.43-2.66-2.36-8.04 2.35-1.87 1.64-2.16 2.14-1.08 1.85.79-.14 3.66-.71 6.32-1.14zm-8.03-3c2.44-2.06 4.16-3.77 3.8-3.92-2.37-.57-21.4-3.78-21.83-3.63-.57.2 12.14 11.12 13.07 11.2.22.07 2.44-1.57 4.96-3.64z"/><path fill="url(#paint0_linear)" fill-opacity=".4" d="M9.13 24.42C3.89 11.29-.21.3 0 .02.3-.19 8.84 1.1 18.96 2.88L37.5 6.23l4.8 4.78 4.75 4.85-13.36 16.2c-7.4 8.9-13.78 16.18-14.21 16.18-.43.08-5.03-10.7-10.34-23.82zm11.2 4.78c.64-5.2 1.08-9.56.93-9.7-.14-.07-3.01-2.43-6.39-5.14C5.32 6.6 5.97 6.94 7.12 9.8c.57 1.35 3.44 8.48 6.39 15.83 2.94 7.28 5.38 13.2 5.45 13.13.08-.07.72-4.35 1.37-9.56zm11.27-.5c4.6-5.5 8.19-10.06 8.11-10.2-.21-.22-14.21 2.14-14.64 2.42-.36.22-2.23 14.34-2.3 16.62 0 .93.14 1.57.29 1.43.14-.14 4.02-4.78 8.54-10.27zm4.3-13.2l4.96-.92-2.15-2.14c-2.44-2.43-2.66-2.36-8.04 2.35-1.87 1.64-2.16 2.14-1.08 1.85.79-.14 3.66-.71 6.32-1.14zm-8.03-3c2.44-2.06 4.16-3.77 3.8-3.92-2.37-.57-21.4-3.78-21.83-3.63-.57.2 12.14 11.12 13.07 11.2.22.07 2.44-1.57 4.96-3.64z"/><path fill="#4D4D5D" d="M149.1 28.46l-8.42-10.13-.21 9.05c-.15 8.47-.29 9.04-1.56 9.04-1.34 0-1.41-.57-1.41-13.38 0-7.38.14-13.4.28-13.4.21 0 4.1 4.42 8.7 9.85l8.34 9.84.21-8.75c.14-8.18.28-8.76 1.56-8.76 1.34 0 1.41.58 1.41 13.39 0 7.38-.07 13.39-.21 13.39-.14 0-4.03-4.56-8.7-10.14z"/><path fill="url(#paint1_linear)" fill-opacity=".4" d="M149.1 28.46l-8.42-10.13-.21 9.05c-.15 8.47-.29 9.04-1.56 9.04-1.34 0-1.41-.57-1.41-13.38 0-7.38.14-13.4.28-13.4.21 0 4.1 4.42 8.7 9.85l8.34 9.84.21-8.75c.14-8.18.28-8.76 1.56-8.76 1.34 0 1.41.58 1.41 13.39 0 7.38-.07 13.39-.21 13.39-.14 0-4.03-4.56-8.7-10.14z"/><path fill="#4D4D5D" d="M61.51 27.74c0-7.95.1-8.44 1.81-8.44 1.72 0 1.81.49 1.81 8.44 0 7.95-.1 8.44-1.8 8.44-1.73 0-1.82-.49-1.82-8.44z"/><path fill="url(#paint2_linear)" fill-opacity=".4" d="M61.51 27.74c0-7.95.1-8.44 1.81-8.44 1.72 0 1.81.49 1.81 8.44 0 7.95-.1 8.44-1.8 8.44-1.73 0-1.82-.49-1.82-8.44z"/><path fill="#4D4D5D" d="M66.34 27.74c0-7.95.06-8.44 1.2-8.44 1.15 0 1.2.49 1.2 8.44 0 7.95-.05 8.44-1.2 8.44-1.14 0-1.2-.49-1.2-8.44z"/><path fill="url(#paint3_linear)" fill-opacity=".4" d="M66.34 27.74c0-7.95.06-8.44 1.2-8.44 1.15 0 1.2.49 1.2 8.44 0 7.95-.05 8.44-1.2 8.44-1.14 0-1.2-.49-1.2-8.44z"/><path fill="#4D4D5D" d="M80.8 24.12V12.06h8.4c4.56 0 8.98.36 9.77.71.73.43 1.89 1.7 2.46 2.84 1.74 3.26 1.38 6.03-1.08 8.8l-2.25 2.48 2.25 4.26a50.15 50.15 0 012.17 4.68c0 .21-.72.35-1.6.35-1.3 0-2.24-1.06-4.19-4.6-2.39-4.4-2.68-4.62-5.21-4.62h-2.75v4.61c0 4.12-.15 4.61-1.45 4.61s-1.45-.5-1.45-5.96v-5.88l5.5-.36c5.65-.35 6.95-1.06 7.9-3.9.28-1.2-.08-2.06-1.38-3.4-1.67-1.64-2.4-1.78-8.04-1.78H83.7v10.64c0 10.15-.07 10.64-1.44 10.64-1.38 0-1.45-.5-1.45-12.06z"/><path fill="url(#paint4_linear)" fill-opacity=".4" d="M80.8 24.12V12.06h8.4c4.56 0 8.98.36 9.77.71.73.43 1.89 1.7 2.46 2.84 1.74 3.26 1.38 6.03-1.08 8.8l-2.25 2.48 2.25 4.26a50.15 50.15 0 012.17 4.68c0 .21-.72.35-1.6.35-1.3 0-2.24-1.06-4.19-4.6-2.39-4.4-2.68-4.62-5.21-4.62h-2.75v4.61c0 4.12-.15 4.61-1.45 4.61s-1.45-.5-1.45-5.96v-5.88l5.5-.36c5.65-.35 6.95-1.06 7.9-3.9.28-1.2-.08-2.06-1.38-3.4-1.67-1.64-2.4-1.78-8.04-1.78H83.7v10.64c0 10.15-.07 10.64-1.44 10.64-1.38 0-1.45-.5-1.45-12.06z"/><path fill="#4D4D5D" d="M115.33 35.5c-7.42-2.66-10.35-11.83-5.85-18.39 2.14-3.25 5.78-5.05 10.2-5.05 8.86 0 14.43 9.45 10.5 17.82-2.28 4.98-9.28 7.64-14.85 5.62zm10-4.68c3.93-3.75 4.07-9.45.29-13.06-5.72-5.41-15-1.59-14.93 6.06.07 3.68 1.22 5.91 4 7.79 2.78 1.95 8.21 1.51 10.64-.8z"/><path fill="url(#paint5_linear)" fill-opacity=".4" d="M115.33 35.5c-7.42-2.66-10.35-11.83-5.85-18.39 2.14-3.25 5.78-5.05 10.2-5.05 8.86 0 14.43 9.45 10.5 17.82-2.28 4.98-9.28 7.64-14.85 5.62zm10-4.68c3.93-3.75 4.07-9.45.29-13.06-5.72-5.41-15-1.59-14.93 6.06.07 3.68 1.22 5.91 4 7.79 2.78 1.95 8.21 1.51 10.64-.8z"/><path fill="#4D4D5D" d="M118.2 23.63c0-1.55.37-1.92 1.92-1.92 1.56 0 1.85.3 1.63 1.7a2.05 2.05 0 01-1.85 1.85c-1.4.22-1.7-.07-1.7-1.63z"/><path fill="url(#paint6_linear)" fill-opacity=".4" d="M118.2 23.63c0-1.55.37-1.92 1.92-1.92 1.56 0 1.85.3 1.63 1.7a2.05 2.05 0 01-1.85 1.85c-1.4.22-1.7-.07-1.7-1.63z"/><path fill="#4D4D5D" d="M141.12 31.36c0-4.34.17-4.83 1.8-4.83 1.63 0 1.81.49 1.81 4.83s-.18 4.82-1.8 4.82c-1.64 0-1.81-.48-1.81-4.82z"/><path fill="url(#paint7_linear)" fill-opacity=".4" d="M141.12 31.36c0-4.34.17-4.83 1.8-4.83 1.63 0 1.81.49 1.81 4.83s-.18 4.82-1.8 4.82c-1.64 0-1.81-.48-1.81-4.82z"/><path fill="#4D4D5D" d="M54.27 13.27c0-1.15.51-1.2 10.86-1.2s10.85.05 10.85 1.2c0 1.14-.5 1.2-10.85 1.2s-10.86-.06-10.86-1.2z"/><path fill="url(#paint8_linear)" fill-opacity=".4" d="M54.27 13.27c0-1.15.51-1.2 10.86-1.2s10.85.05 10.85 1.2c0 1.14-.5 1.2-10.85 1.2s-10.86-.06-10.86-1.2z"/><defs><linearGradient id="paint0_linear" x1="23.519" x2="23.519" y1="0" y2="48.244" gradientUnits="userSpaceOnUse"><stop stop-color="#fff"/><stop offset="1" stop-color="#fff" stop-opacity="0"/></linearGradient><linearGradient id="paint1_linear" x1="147.748" x2="147.748" y1="9.649" y2="38.595" gradientUnits="userSpaceOnUse"><stop stop-color="#fff"/><stop offset="1" stop-color="#fff" stop-opacity="0"/></linearGradient><linearGradient id="paint2_linear" x1="63.321" x2="63.321" y1="19.298" y2="36.183" gradientUnits="userSpaceOnUse"><stop stop-color="#fff"/><stop offset="1" stop-color="#fff" stop-opacity="0"/></linearGradient><linearGradient id="paint3_linear" x1="67.542" x2="67.542" y1="19.298" y2="36.183" gradientUnits="userSpaceOnUse"><stop stop-color="#fff"/><stop offset="1" stop-color="#fff" stop-opacity="0"/></linearGradient><linearGradient id="paint4_linear" x1="91.664" x2="91.664" y1="12.061" y2="36.183" gradientUnits="userSpaceOnUse"><stop stop-color="#fff"/><stop offset="1" stop-color="#fff" stop-opacity="0"/></linearGradient><linearGradient id="paint5_linear" x1="119.405" x2="119.405" y1="12.061" y2="36.183" gradientUnits="userSpaceOnUse"><stop stop-color="#fff"/><stop offset="1" stop-color="#fff" stop-opacity="0"/></linearGradient><linearGradient id="paint6_linear" x1="120.008" x2="120.008" y1="21.71" y2="25.328" gradientUnits="userSpaceOnUse"><stop stop-color="#fff"/><stop offset="1" stop-color="#fff" stop-opacity="0"/></linearGradient><linearGradient id="paint7_linear" x1="142.924" x2="142.924" y1="26.534" y2="36.183" gradientUnits="userSpaceOnUse"><stop stop-color="#fff"/><stop offset="1" stop-color="#fff" stop-opacity="0"/></linearGradient><linearGradient id="paint8_linear" x1="65.13" x2="65.13" y1="12.061" y2="14.473" gradientUnits="userSpaceOnUse"><stop stop-color="#fff"/><stop offset="1" stop-color="#fff" stop-opacity="0"/></linearGradient></defs></svg>
